icons/op-meetings-24.svg

<svg width="24" height="24" viewBox="0 0 24 24" fill="none" xmlns="http://www.w3.org/2000/svg">
<path d="M18 6.01575V14.0787H12.9688L12.25 14.4567L10 16V14.0787H6V6.01575H18ZM20 4H4V16.0945H8V20L13.625 16.0945H20V4Z" fill="black"/>
</svg>

<svg xmlns="http://www.w3.org/2000/svg" width="24" height="24" viewBox="0 0 24 24"><path d="M18 6.016v8.063h-5.031l-.719.378L10 16v-1.921H6V6.016h12ZM20 4H4v12.095h4V20l5.625-3.905H20V4Z"/></svg>
